X: 48
T:Canary
M:C|
L:1/4
R:Canary (!)
B:Thoinot Arbeau : Orchesographie, 1589
Z:Steve Mansfield March 2001
K:GMix
G2 AB | G2 AB | c2 dB | A2 BG ::
G2 dc | B2 cd | c2 cB | A2 AG :|

